X:53
T:Grand Parade. JJo8.053, The
%%VWML:JohnsonVol8-2184-p27-0
F:http://www.vwml.org/record/JohnsonVol8/2184/p27
Z:Transcribed by Simon Furey and Lewis Jones
Z:vmp.Simon Wilson 2013 www.village-music-project.org.uk
Z:Dance added by John Chambers 2017
M:6/8
L:1/8
%Q:3/8=120
K:D
|:\
d2f agf | e2f gfe | fed edc | dAG FED |\
d2f agf | e2f gfe | fed edc | d3D3 :|
|:\
f2d cBA | B2G FED | DFD EGE | FAG FED |\
GBG AcA | Bed cBA | dfd edc | d3D3 :|
W: Whole figure thro' the 2d Cu. .| Cast off
W:and half figure thro' the 2d Cu. ..| foot it
W:and turn your Partner half round by the
W:Right hand .| Right and Left at top ..|
W:
T:Abel Drugger. JJo8.054
B:J.Johnson Choice Collection Vol 8 1758
Z:vmp.Simon Wilson 2013 www.village-music-project.org.uk
Z:Dance added by John Chambers 2017
M:C|
L:1/8
%Q:1/2=80
K:G
|:\
G2G(B/c/) dBGB | D2D(A/B/) cAFA |\
G2G(B/c/) dBGB | AdAFG2G,2 :|\
|:\
d(e/f/) ge dBGB | D(A/B/) cA dBcA |
d(e/f/) ge dBGB | AcAFG2G,2 :|\
|:\
g2"^tr"f2gdBG | cBAG FAFD |\
g2"^tr"f2gdBG | AdAFG2G,2 :|
W: Whole figure down and up again :|
W:lead tor' the 2d Cu. and cast up .| Cross
W:over and half figure ..| hands round at
W:Bottom .| Right and Left at top ..|
W:
